ametion_vv-test/img/icons/article-phone.svg

<svg width="48" height="48" viewBox="0 0 48 48" fill="none" xmlns="http://www.w3.org/2000/svg">
<rect width="48" height="48" rx="12" fill="#F9F9F9"/>
<path d="M30.4323 26.9109L28.17 26.6526C27.6267 26.5903 27.0923 26.7773 26.7093 27.1603L25.0704 28.7992C22.5498 27.5166 20.4834 25.4591 19.2008 22.9295L20.8486 21.2818C21.2316 20.8988 21.4186 20.3644 21.3563 19.821L21.098 17.5765C20.9911 16.6769 20.234 16 19.3255 16H17.7846C16.7782 16 15.9409 16.8372 16.0033 17.8437C16.4753 25.4502 22.5587 31.5247 30.1562 31.9967C31.1627 32.0591 31.9999 31.2218 31.9999 30.2154V28.6745C32.0088 27.7749 31.3319 27.0178 30.4323 26.9109Z" fill="#36BA5F"/>
</svg>

<svg width="48" height="48" fill="none" xmlns="http://www.w3.org/2000/svg"><rect width="48" height="48" rx="12" fill="#F9F9F9"/><path d="M30.432 26.91l-2.262-.257a1.773 1.773 0 00-1.46.507l-1.64 1.64a13.4 13.4 0 01-5.87-5.87l1.649-1.648c.383-.383.57-.918.507-1.461l-.258-2.245A1.783 1.783 0 0019.326 16h-1.541c-1.007 0-1.844.837-1.782 1.844.472 7.606 6.556 13.68 14.153 14.153 1.007.062 1.844-.775 1.844-1.782v-1.54a1.765 1.765 0 00-1.568-1.764z" fill="#36BA5F"/></svg>
